X: 27613
T: Moon And The Seven Stars, The
R: jig
M: 6/8
K: Dmajor
c|:d2A A2F|GAB A3|Bcd efg|fed cBA|
d2A A2F|GAB A3|Bcd efg|1 Adc d2c:|2 Adc d3||
|:e2A A3|efg f3|efg fed|cdB A3|
BGB AFA|BGB AFA|Bcd efg|1 Adc d3:|2 Adc d2c||

